static/assets/img/logos/product/slack.svg

<svg fill="none" height="48" viewBox="0 0 48 48" width="48" xmlns="http://www.w3.org/2000/svg"><path d="m30.2369 5.58619c-.6384-1.96526-2.7492-3.04069-4.7142-2.40196-1.9652.6384-3.0407 2.74923-2.4019 4.71416l9.674 29.76441c.6643 1.836 2.6475 2.8676 4.5512 2.3198 1.9858-.5716 3.1961-2.6807 2.5625-4.6308z" fill="#dfa22f"/><path d="m15.2471 10.4567c-.6388-1.96505-2.7494-3.04049-4.7144-2.40208-1.96541.63856-3.04102 2.74918-2.40212 4.71448l9.67422 29.7646c.6641 1.8358 2.6475 2.8676 4.5512 2.3193 1.9856-.5713 3.1959-2.6803 2.5623-4.6308z" fill="#3cb187"/><path d="m42.4139 30.2372c1.9653-.6384 3.0404-2.7489 2.402-4.7143-.6384-1.965-2.7493-3.0406-4.7142-2.402l-29.7645 9.6743c-1.83596.664-2.86758 2.6472-2.31977 4.5509.57161 1.9856 2.68067 3.1961 4.63077 2.5625l29.7657-9.6712" fill="#ce1e5b"/><path d="m16.5407 38.6439 7.1139-2.3114-2.3117-7.1146-7.1144 2.3123 2.3122 7.1138" fill="#392538"/><path d="m31.5306 33.7732c2.6895-.8736 5.1893-1.6859 7.114-2.3114l-2.312-7.1159-7.1143 2.3123z" fill="#bb242a"/><path d="m37.5434 15.2472c1.965-.6384 3.0405-2.749 2.4021-4.7144-.6384-1.96498-2.7492-3.04041-4.7145-2.40201l-29.7647 9.67451c-1.83578.6637-2.86757 2.647-2.31926 4.5507.57128 1.9854 2.68031 3.1959 4.6308 2.5623l29.76556-9.6712" fill="#72c5cd"/><path d="m11.6688 23.6543c1.9374-.6296 4.4352-1.4413 7.115-2.3117-.8736-2.6899-1.6859-5.1896-2.3114-7.1147l-7.11595 2.3127z" fill="#248c73"/><path d="m26.6586 18.7839 7.1153-2.3121c-.7707-2.372-1.5414-4.744-2.3122-7.11593l-7.1155 2.31273z" fill="#62803a"/></svg>

<svg width="48" height="48" viewBox="0 0 48 48" fill="none" xmlns="http://www.w3.org/2000/svg">
<path d="M30.2369 5.58619C29.5985 3.62093 27.4877 2.5455 25.5227 3.18423C23.5575 3.82263 22.482 5.93346 23.1208 7.89839L32.7948 37.6628C33.4591 39.4988 35.4423 40.5304 37.346 39.9826C39.3318 39.411 40.5421 37.3019 39.9085 35.3518L30.2369 5.58619Z" fill="#DFA22F"/>
<path d="M15.2471 10.4567C14.6083 8.49165 12.4977 7.41621 10.5327 8.05462C8.56729 8.69318 7.49168 10.8038 8.13058 12.7691L17.8048 42.5337C18.4689 44.3695 20.4523 45.4013 22.356 44.853C24.3416 44.2817 25.5519 42.1727 24.9183 40.2222L15.2471 10.4567Z" fill="#3CB187"/>
<path d="M42.4139 30.2372C44.3792 29.5988 45.4543 27.4883 44.8159 25.5229C44.1775 23.5579 42.0666 22.4823 40.1017 23.1209L10.3372 32.7952C8.50124 33.4592 7.46962 35.4424 8.01743 37.3461C8.58904 39.3317 10.6981 40.5422 12.6482 39.9086L42.4139 30.2374" fill="#CE1E5B"/>
<path d="M16.5407 38.6439L23.6546 36.3325L21.3429 29.2179L14.2285 31.5302L16.5407 38.644" fill="#392538"/>
<path d="M31.5306 33.7732C34.2201 32.8996 36.7199 32.0873 38.6446 31.4618L36.3326 24.3459L29.2183 26.6582L31.5306 33.7732Z" fill="#BB242A"/>
<path d="M37.5434 15.2472C39.5084 14.6088 40.5839 12.4982 39.9455 10.5328C39.3071 8.56782 37.1963 7.49239 35.231 8.13079L5.4663 17.8053C3.63052 18.469 2.59873 20.4523 3.14704 22.356C3.71832 24.3414 5.82735 25.5519 7.77784 24.9183L37.5434 15.2471" fill="#72C5CD"/>
<path d="M11.6688 23.6543C13.6062 23.0247 16.104 22.213 18.7838 21.3426C17.9102 18.6527 17.0979 16.153 16.4724 14.2279L9.35645 16.5406L11.6688 23.6543Z" fill="#248C73"/>
<path d="M26.6586 18.7839L33.7739 16.4718C33.0032 14.0998 32.2325 11.7278 31.4617 9.35587L24.3462 11.6686L26.6586 18.7839Z" fill="#62803A"/>
</svg>
